X:1
T:A minor Stephen Jenks, 1803
T:Charles Wesley, 1745 Hymns on the Lord's Supper , 23 77. 77. 77.
T:Mount Calvary
T:Transcribed from Jenks, Delights of Harmony, 1805.
%%score [ 1 2 3 4 ]
L:1/8
Q:1/4=120
M:2/4
K:C
V:1 treble nm="Treble" snm="Tr."
V:2 treble nm="Counter" snm="C."
V:3 treble-8 nm="Tenor" snm="T."
V:4 bass nm="Bass" snm="B."
V:1
 A2 E2 | A2 ed | c2 B2 | A4 | G2 c2 | B2 B2 | A2 A2 | ^G4 | ^G2 G2 | A2 A2 | B2 B2 | c4 | e2 d2 | %13
w: 1.~Hearts of|stone, re- *|lent, re-|lent,|Break by|Je- sus'|cross sub-|dued;|See his|bo- dy|man- gled,|rent;|Co- vered|
 c2 BA | ^G2 G2 | A4 |: e2 e2 | d2 z d | c2 c2 | B2 z2 | e2 d2 | c2 BA | A2 ^G2 |1 A4 :|2 A4- || %25
w: with a *|gore of|blood.|Sin- ful|soul. what|hast thou|done?|Mur- dered|God's e- *|ter- nal|Son!||
 A4 |] %26
w: |
V:2
 E2 E2 | E2 E2 | F2 E2 | E4 | E2 G2 | G2 G2 | E2 E2 | E4 | ^G2 G2 | E2 AF | G2 G2 | G4 | GE A2 | %13
w: 2.~Yes, our|sins have|done the|deed,|Drove the|nails that|fix him|here,|Crowned with|thorns his *|sa- cred|head,|Pierced * him|
 G2 GF | E2 E2 | E4 |: G2 G2 | G2 z E | E2 E2 | E2 z2 | GE A2 | G2 E2 | F2 E2 |1 E4 :|2 E4- || %25
w: with the *|sol- dier's|soear,|Made his|soul a|sac- ri-|fice;|For * a|sin- ful|world he|dies.||
 E4 |] %26
w: |
V:3
 A2 B2 | c2 cB | A2 ^G2 | A4 | e2 e2 | d2 d2 | c2 c2 | B4 | B2 B2 | c2 c2 | d2 d2 | e4 | e2 f2 | %13
w: 3.~Shall we|let him *|die in|vain?|Still to|death pur-|sue our|God>|O- pen|tear his|wounds a-|gain,|Tram- ple|
 e2 dc | B2 B2 | A4 |: c2 c2 | B2 z B | A2 A2 | ^G2 z2 | e2 f2 | e2 c2 | dc B2 |1 A4 :|2 A4- || %25
w: on his *|pre- cious|blood?|No, with|all our|sins we|part;|Sa- vior,|take my|bro- * ken|heart!||
 A4 |] %26
w: |
V:4
 A,2 ^G,2 | A,2 E,2 | D,2 E,2 | A,,4 | C,2 C,2 | G,2 G,2 | A,2 A,2 | E,4 | E,2 E,2 | A,2 A,2 | %10
 G,2 G,2 | C,4 | C,2 D,2 | E,2 F,D, | E,2 E,2 | A,,4 |: E,2 C,2 | G,2 z G, | A,2 A,2 | %19
"^___________________________________________________________\nEdited by B. C. Johnston, 2016\n   1. Measure 9, \nCounter\n: both notes changed from G to G#, as in \nTreble\n.\n   2. Measure 25 changed from a 3:2 measure with dotted half-note, to two 2:4 measures of half-notes tied." E,2 z2 | %20
 C,2 D,2 | E,2 E,2 | A,2 E,2 |1 A,,4 :|2 A,,4- || A,,4 |] %26

